configs/marketplace-logos/OnrampMoney.svg

<?xml version="1.0" encoding="UTF-8"?>
<svg xmlns="http://www.w3.org/2000/svg" xmlns:xlink="http://www.w3.org/1999/xlink" width="138pt" height="32pt" viewBox="0 0 138 32" version="1.1">
<defs>
<clipPath id="clip1">
  <path d="M 2 0.015625 L 33 0.015625 L 33 25 L 2 25 Z M 2 0.015625 "/>
</clipPath>
<clipPath id="clip2">
  <path d="M 1 0.015625 L 33 0.015625 L 33 30 L 1 30 Z M 1 0.015625 "/>
</clipPath>
</defs>
<g id="surface1">
<g clip-path="url(#clip1)" clip-rule="nonzero">
<path style=" stroke:none;fill-rule:nonzero;fill:rgb(8.235294%,8.235294%,8.235294%);fill-opacity:1;" d="M 27.042969 0.535156 L 32.746094 0.535156 L 13.804688 20.394531 L 24.851562 20.394531 L 24.851562 24.582031 L 2.996094 24.582031 Z M 27.042969 0.535156 "/>
</g>
<path style=" stroke:none;fill-rule:nonzero;fill:rgb(100%,100%,100%);fill-opacity:1;" d="M 31.570312 23.992188 L 29.042969 27.101562 L 29.042969 8.558594 L 18.113281 19.5 L 14.433594 19.5 L 31.570312 1.5 Z M 31.570312 23.992188 "/>
<path style=" stroke:none;fill-rule:nonzero;fill:rgb(100%,100%,100%);fill-opacity:1;" d="M 3.082031 28.429688 L 3.082031 24.9375 L 25.085938 24.9375 L 25.085938 14.085938 L 27.9375 11.230469 L 27.9375 28.429688 Z M 3.082031 28.429688 "/>
<g clip-path="url(#clip2)" clip-rule="nonzero">
<path style=" stroke:none;fill-rule:evenodd;fill:rgb(8.235294%,8.235294%,8.235294%);fill-opacity:1;" d="M 29.042969 8.558594 L 29.042969 27.101562 L 31.570312 23.992188 L 31.570312 1.5 L 14.433594 19.5 L 18.113281 19.5 Z M 19.675781 19.5 L 23.980469 19.5 L 23.980469 15.191406 Z M 25.085938 14.085938 L 25.085938 24.9375 L 3.082031 24.9375 L 3.082031 28.429688 L 27.9375 28.429688 L 27.9375 11.230469 Z M 28.492188 29.535156 L 1.976562 29.535156 L 1.976562 24.382812 L 26.796875 -0.464844 L 32.675781 -0.464844 L 32.675781 24.382812 Z M 30.859375 0.640625 L 11.851562 20.609375 L 23.980469 20.609375 L 23.980469 23.832031 L 4.089844 23.832031 L 27.253906 0.640625 Z M 30.859375 0.640625 "/>
</g>
<path style=" stroke:none;fill-rule:nonzero;fill:rgb(8.235294%,8.235294%,8.235294%);fill-opacity:1;" d="M 48.347656 13.085938 C 47.535156 13.085938 46.789062 12.945312 46.109375 12.664062 C 45.429688 12.375 44.847656 11.980469 44.355469 11.480469 C 43.875 10.980469 43.496094 10.390625 43.214844 9.710938 C 42.945312 9.03125 42.8125 8.292969 42.8125 7.503906 C 42.8125 6.714844 42.945312 5.980469 43.214844 5.300781 C 43.496094 4.621094 43.875 4.03125 44.355469 3.53125 C 44.847656 3.03125 45.429688 2.640625 46.109375 2.359375 C 46.789062 2.070312 47.535156 1.925781 48.347656 1.925781 C 49.15625 1.925781 49.902344 2.070312 50.582031 2.359375 C 51.261719 2.640625 51.839844 3.03125 52.320312 3.53125 C 52.8125 4.03125 53.191406 4.621094 53.460938 5.300781 C 53.742188 5.980469 53.882812 6.714844 53.882812 7.503906 C 53.882812 8.292969 53.742188 9.03125 53.460938 9.710938 C 53.191406 10.390625 52.8125 10.980469 52.320312 11.480469 C 51.839844 11.980469 51.261719 12.375 50.582031 12.664062 C 49.902344 12.945312 49.15625 13.085938 48.347656 13.085938 Z M 48.347656 11.734375 C 48.957031 11.734375 49.507812 11.625 49.996094 11.40625 C 50.484375 11.175781 50.90625 10.871094 51.257812 10.488281 C 51.605469 10.109375 51.875 9.664062 52.066406 9.15625 C 52.257812 8.632812 52.351562 8.085938 52.351562 7.503906 C 52.351562 6.925781 52.257812 6.378906 52.066406 5.871094 C 51.875 5.347656 51.605469 4.898438 51.257812 4.519531 C 50.90625 4.140625 50.484375 3.839844 49.996094 3.621094 C 49.507812 3.390625 48.957031 3.273438 48.347656 3.273438 C 47.734375 3.273438 47.1875 3.390625 46.695312 3.621094 C 46.207031 3.839844 45.785156 4.140625 45.4375 4.519531 C 45.085938 4.898438 44.816406 5.347656 44.625 5.871094 C 44.4375 6.378906 44.339844 6.925781 44.339844 7.503906 C 44.339844 8.085938 44.4375 8.632812 44.625 9.15625 C 44.816406 9.664062 45.085938 10.109375 45.4375 10.488281 C 45.785156 10.871094 46.207031 11.175781 46.695312 11.40625 C 47.1875 11.625 47.734375 11.734375 48.347656 11.734375 Z M 48.347656 11.734375 "/>
<path style=" stroke:none;fill-rule:nonzero;fill:rgb(8.235294%,8.235294%,8.235294%);fill-opacity:1;" d="M 57.953125 2.195312 L 59.839844 2.195312 L 65.691406 10.925781 L 65.722656 10.925781 L 65.722656 2.195312 L 67.160156 2.195312 L 67.160156 12.8125 L 65.332031 12.8125 L 59.421875 4.085938 L 59.390625 4.085938 L 59.390625 12.8125 L 57.953125 12.8125 Z M 57.953125 2.195312 "/>
<path style=" stroke:none;fill-rule:nonzero;fill:rgb(8.235294%,8.235294%,8.235294%);fill-opacity:1;" d="M 71.890625 2.195312 L 75.625 2.195312 C 76.304688 2.195312 76.863281 2.289062 77.304688 2.480469 C 77.746094 2.660156 78.089844 2.894531 78.339844 3.183594 C 78.601562 3.464844 78.78125 3.785156 78.878906 4.144531 C 78.980469 4.496094 79.03125 4.835938 79.03125 5.164062 C 79.03125 5.503906 78.96875 5.835938 78.851562 6.15625 C 78.730469 6.464844 78.554688 6.75 78.324219 7.007812 C 78.105469 7.257812 77.828125 7.472656 77.5 7.65625 C 77.179688 7.824219 76.820312 7.929688 76.421875 7.96875 L 79.433594 12.8125 L 77.636719 12.8125 L 74.933594 8.132812 L 73.328125 8.132812 L 73.328125 12.8125 L 71.890625 12.8125 Z M 73.328125 6.875 L 75.21875 6.875 C 75.5 6.875 75.773438 6.855469 76.046875 6.8125 C 76.324219 6.765625 76.570312 6.679688 76.78125 6.558594 C 77 6.4375 77.175781 6.269531 77.304688 6.050781 C 77.433594 5.820312 77.5 5.523438 77.5 5.164062 C 77.5 4.804688 77.433594 4.515625 77.304688 4.292969 C 77.175781 4.0625 77 3.890625 76.78125 3.769531 C 76.570312 3.648438 76.324219 3.570312 76.046875 3.53125 C 75.773438 3.480469 75.5 3.453125 75.21875 3.453125 L 73.328125 3.453125 Z M 73.328125 6.875 "/>
<path style=" stroke:none;fill-rule:nonzero;fill:rgb(8.235294%,8.235294%,8.235294%);fill-opacity:1;" d="M 95.515625 2.195312 L 97.660156 2.195312 L 101.035156 10.234375 L 101.097656 10.234375 L 104.441406 2.195312 L 106.585938 2.195312 L 106.585938 12.8125 L 105.144531 12.8125 L 105.144531 4.085938 L 105.117188 4.085938 L 101.53125 12.8125 L 100.570312 12.8125 L 96.988281 4.085938 L 96.957031 4.085938 L 96.957031 12.8125 L 95.515625 12.8125 Z M 95.515625 2.195312 "/>
<path style=" stroke:none;fill-rule:nonzero;fill:rgb(8.235294%,8.235294%,8.235294%);fill-opacity:1;" d="M 111.214844 2.195312 L 114.949219 2.195312 C 115.628906 2.195312 116.191406 2.289062 116.628906 2.480469 C 117.070312 2.660156 117.414062 2.894531 117.664062 3.183594 C 117.925781 3.464844 118.105469 3.785156 118.203125 4.144531 C 118.304688 4.496094 118.355469 4.835938 118.355469 5.164062 C 118.355469 5.496094 118.304688 5.839844 118.203125 6.199219 C 118.105469 6.550781 117.925781 6.871094 117.664062 7.160156 C 117.414062 7.4375 117.070312 7.675781 116.628906 7.863281 C 116.191406 8.042969 115.628906 8.132812 114.949219 8.132812 L 112.65625 8.132812 L 112.65625 12.8125 L 111.214844 12.8125 Z M 112.65625 6.875 L 114.546875 6.875 C 114.824219 6.875 115.101562 6.855469 115.371094 6.8125 C 115.648438 6.765625 115.894531 6.679688 116.105469 6.558594 C 116.324219 6.4375 116.5 6.269531 116.628906 6.050781 C 116.761719 5.820312 116.824219 5.523438 116.824219 5.164062 C 116.824219 4.804688 116.761719 4.515625 116.628906 4.292969 C 116.5 4.0625 116.324219 3.890625 116.105469 3.769531 C 115.894531 3.648438 115.648438 3.570312 115.371094 3.53125 C 115.101562 3.480469 114.824219 3.453125 114.546875 3.453125 L 112.65625 3.453125 Z M 112.65625 6.875 "/>
<path style=" stroke:none;fill-rule:nonzero;fill:rgb(8.235294%,8.235294%,8.235294%);fill-opacity:1;" d="M 86.390625 2.195312 L 87.695312 2.195312 L 92.238281 12.8125 L 90.558594 12.8125 L 88.96875 8.929688 L 86.988281 4.054688 L 86.960938 4.054688 L 83.390625 12.8125 L 81.710938 12.8125 Z M 86.390625 2.195312 "/>
<path style=" stroke:none;fill-rule:nonzero;fill:rgb(17.254902%,35.686275%,100%);fill-opacity:1;" d="M 42.417969 25.917969 C 42.417969 25.621094 42.519531 25.375 42.71875 25.175781 C 42.917969 24.976562 43.171875 24.878906 43.484375 24.878906 C 43.796875 24.878906 44.054688 24.976562 44.265625 25.175781 C 44.472656 25.375 44.574219 25.621094 44.574219 25.917969 C 44.574219 26.207031 44.472656 26.449219 44.265625 26.644531 C 44.054688 26.835938 43.796875 26.929688 43.484375 26.929688 C 43.171875 26.929688 42.917969 26.835938 42.71875 26.640625 C 42.519531 26.445312 42.417969 26.203125 42.417969 25.917969 Z M 54.675781 26.816406 L 54.675781 23.121094 C 54.675781 22.65625 54.5625 22.300781 54.335938 22.0625 C 54.113281 21.824219 53.816406 21.707031 53.453125 21.707031 C 52.992188 21.707031 52.632812 21.890625 52.367188 22.265625 C 52.101562 22.636719 51.972656 23.199219 51.972656 23.953125 L 51.332031 23.953125 C 51.332031 23.292969 51.394531 22.730469 51.515625 22.269531 C 51.640625 21.808594 51.816406 21.433594 52.042969 21.152344 C 52.273438 20.867188 52.539062 20.660156 52.847656 20.527344 C 53.15625 20.394531 53.496094 20.328125 53.867188 20.328125 C 54.382812 20.328125 54.816406 20.445312 55.164062 20.679688 C 55.511719 20.90625 55.777344 21.234375 55.957031 21.652344 C 56.132812 22.074219 56.222656 22.5625 56.222656 23.121094 L 56.222656 26.816406 Z M 46.109375 26.816406 L 46.109375 20.507812 L 47.445312 20.507812 L 47.617188 21.589844 C 47.824219 21.167969 48.097656 20.855469 48.441406 20.644531 C 48.785156 20.433594 49.175781 20.328125 49.617188 20.328125 C 50.136719 20.328125 50.570312 20.445312 50.917969 20.679688 C 51.269531 20.90625 51.53125 21.234375 51.703125 21.652344 C 51.882812 22.074219 51.972656 22.5625 51.972656 23.121094 L 51.972656 26.816406 L 50.4375 26.816406 L 50.4375 23.121094 C 50.4375 22.65625 50.324219 22.300781 50.097656 22.0625 C 49.875 21.824219 49.578125 21.707031 49.214844 21.707031 C 48.90625 21.707031 48.632812 21.789062 48.394531 21.960938 C 48.160156 22.128906 47.976562 22.382812 47.84375 22.726562 C 47.710938 23.0625 47.640625 23.488281 47.640625 23.992188 L 47.640625 26.816406 Z M 60.929688 26.996094 C 60.355469 26.996094 59.832031 26.871094 59.363281 26.625 C 58.902344 26.378906 58.53125 26.011719 58.257812 25.519531 C 57.984375 25.027344 57.851562 24.410156 57.851562 23.667969 C 57.851562 22.914062 57.984375 22.289062 58.257812 21.796875 C 58.53125 21.300781 58.902344 20.933594 59.363281 20.691406 C 59.832031 20.449219 60.355469 20.328125 60.929688 20.328125 C 61.5 20.328125 62.011719 20.449219 62.472656 20.691406 C 62.933594 20.933594 63.304688 21.300781 63.578125 21.796875 C 63.847656 22.289062 63.984375 22.914062 63.984375 23.667969 C 63.984375 24.410156 63.847656 25.027344 63.578125 25.519531 C 63.304688 26.011719 62.933594 26.378906 62.472656 26.625 C 62.011719 26.871094 61.5 26.996094 60.929688 26.996094 Z M 60.878906 25.65625 C 61.183594 25.65625 61.449219 25.582031 61.683594 25.4375 C 61.921875 25.285156 62.109375 25.0625 62.242188 24.765625 C 62.382812 24.472656 62.453125 24.105469 62.453125 23.667969 C 62.453125 23 62.320312 22.5 62.054688 22.160156 C 61.796875 21.824219 61.4375 21.652344 60.984375 21.652344 C 60.675781 21.652344 60.402344 21.730469 60.164062 21.882812 C 59.925781 22.027344 59.738281 22.25 59.597656 22.550781 C 59.464844 22.847656 59.398438 23.222656 59.398438 23.667969 C 59.398438 24.328125 59.527344 24.824219 59.792969 25.15625 C 60.0625 25.492188 60.421875 25.65625 60.878906 25.65625 Z M 70.140625 26.816406 L 70.140625 23.121094 C 70.140625 22.65625 70.027344 22.300781 69.800781 22.0625 C 69.578125 21.824219 69.28125 21.707031 68.917969 21.707031 C 68.609375 21.707031 68.335938 21.789062 68.097656 21.960938 C 67.863281 22.128906 67.679688 22.382812 67.546875 22.726562 C 67.414062 23.0625 67.34375 23.488281 67.34375 23.992188 L 66.839844 23.992188 C 66.839844 23.175781 66.941406 22.492188 67.144531 21.953125 C 67.347656 21.40625 67.636719 21 68.007812 20.730469 C 68.378906 20.460938 68.820312 20.328125 69.320312 20.328125 C 69.839844 20.328125 70.273438 20.445312 70.621094 20.679688 C 70.972656 20.90625 71.234375 21.234375 71.40625 21.652344 C 71.585938 22.074219 71.675781 22.5625 71.675781 23.121094 L 71.675781 26.816406 Z M 65.8125 26.816406 L 65.8125 20.507812 L 67.148438 20.507812 L 67.34375 21.757812 L 67.34375 26.816406 Z M 76.265625 26.996094 C 75.726562 26.996094 75.234375 26.859375 74.789062 26.582031 C 74.34375 26.304688 73.984375 25.914062 73.714844 25.417969 C 73.445312 24.914062 73.3125 24.328125 73.3125 23.65625 C 73.3125 22.960938 73.445312 22.367188 73.710938 21.867188 C 73.976562 21.371094 74.335938 20.988281 74.78125 20.722656 C 75.226562 20.460938 75.722656 20.328125 76.265625 20.328125 C 76.765625 20.328125 77.199219 20.429688 77.5625 20.632812 C 77.933594 20.832031 78.226562 21.105469 78.449219 21.453125 C 78.671875 21.792969 78.824219 22.183594 78.902344 22.617188 C 78.980469 23.046875 78.984375 23.496094 78.914062 23.953125 L 74.535156 23.953125 L 74.535156 23.121094 L 77.832031 23.121094 L 77.53125 23.316406 C 77.542969 23.113281 77.535156 22.90625 77.5 22.699219 C 77.46875 22.492188 77.40625 22.300781 77.316406 22.128906 C 77.226562 21.953125 77.09375 21.816406 76.925781 21.710938 C 76.761719 21.605469 76.550781 21.550781 76.289062 21.550781 C 75.976562 21.550781 75.714844 21.628906 75.496094 21.785156 C 75.28125 21.941406 75.117188 22.152344 75.003906 22.421875 C 74.890625 22.6875 74.832031 22.992188 74.832031 23.332031 L 74.832031 23.941406 C 74.832031 24.296875 74.886719 24.609375 74.988281 24.882812 C 75.097656 25.15625 75.257812 25.371094 75.464844 25.527344 C 75.675781 25.683594 75.941406 25.761719 76.265625 25.761719 C 76.5625 25.761719 76.8125 25.691406 77.019531 25.554688 C 77.222656 25.414062 77.351562 25.207031 77.40625 24.929688 L 78.953125 24.929688 C 78.890625 25.335938 78.734375 25.695312 78.492188 26.007812 C 78.253906 26.316406 77.945312 26.558594 77.5625 26.738281 C 77.183594 26.910156 76.75 26.996094 76.265625 26.996094 Z M 79.84375 20.507812 L 81.585938 20.507812 L 83.261719 25.476562 L 82.988281 25.476562 L 84.429688 20.507812 L 85.992188 20.507812 L 83.574219 27.957031 C 83.328125 28.703125 83.019531 29.242188 82.65625 29.578125 C 82.296875 29.910156 81.855469 30.078125 81.335938 30.078125 C 81.039062 30.078125 80.746094 30.042969 80.460938 29.972656 C 80.179688 29.910156 79.890625 29.804688 79.59375 29.660156 L 79.59375 28.308594 C 79.832031 28.457031 80.0625 28.566406 80.285156 28.632812 C 80.507812 28.703125 80.734375 28.738281 80.960938 28.738281 C 81.164062 28.738281 81.339844 28.683594 81.492188 28.570312 C 81.648438 28.460938 81.785156 28.308594 81.894531 28.109375 C 82.007812 27.914062 82.105469 27.683594 82.183594 27.425781 L 82.378906 26.816406 Z M 79.84375 20.507812 "/>
</g>
</svg>

<svg xmlns="http://www.w3.org/2000/svg" viewBox="0 0 138 32">
  <defs>
    <clipPath id="OnrampMoney_svg__a">
      <path d="M2 .016h31V25H2Zm0 0"/>
    </clipPath>
    <clipPath id="OnrampMoney_svg__b">
      <path d="M1 .016h32V30H1Zm0 0"/>
    </clipPath>
  </defs>
  <g clip-path="url(#OnrampMoney_svg__a)">
    <path d="M27.043.535h5.703l-18.941 19.86h11.047v4.187H2.996Zm0 0" style="stroke:none;fill-rule:nonzero;fill:#151515;fill-opacity:1"/>
  </g>
  <path d="m31.57 23.992-2.527 3.11V8.559L18.113 19.5h-3.68l17.137-18Zm0 0" style="stroke:none;fill-rule:nonzero;fill:#fff;fill-opacity:1"/>
  <path d="M3.082 28.43v-3.492h22.004V14.085l2.852-2.856v17.2Zm0 0" style="stroke:none;fill-rule:nonzero;fill:#fff;fill-opacity:1"/>
  <g clip-path="url(#OnrampMoney_svg__b)">
    <path d="M29.043 8.559v18.543l2.527-3.11V1.5l-17.136 18h3.68ZM19.676 19.5h4.304v-4.309Zm5.41-5.414v10.851H3.082v3.493h24.855v-17.2Zm3.406 15.45H1.977v-5.153L26.797-.465h5.879v24.848ZM30.86.64 11.852 20.609H23.98v3.223H4.09L27.254.641Zm0 0" style="stroke:none;fill-rule:evenodd;fill:#151515;fill-opacity:1"/>
  </g>
  <path d="M48.348 13.086c-.813 0-1.559-.14-2.239-.422a5.386 5.386 0 0 1-1.754-1.184c-.48-.5-.859-1.09-1.14-1.77a5.942 5.942 0 0 1-.403-2.206c0-.79.133-1.524.403-2.203.281-.68.66-1.27 1.14-1.77.493-.5 1.075-.89 1.754-1.172a5.661 5.661 0 0 1 2.239-.433c.808 0 1.554.144 2.234.433a5.06 5.06 0 0 1 1.738 1.172c.492.5.871 1.09 1.14 1.77.282.68.423 1.414.423 2.203 0 .789-.14 1.527-.422 2.207-.27.68-.648 1.27-1.14 1.77-.481.5-1.06.894-1.739 1.183a5.792 5.792 0 0 1-2.234.422Zm0-1.352c.609 0 1.16-.109 1.648-.328.488-.23.91-.535 1.262-.918.347-.379.617-.824.808-1.332a4.74 4.74 0 0 0 .286-1.652 4.6 4.6 0 0 0-.286-1.633 4.007 4.007 0 0 0-.808-1.351 3.851 3.851 0 0 0-1.262-.899 3.82 3.82 0 0 0-1.648-.348c-.614 0-1.16.118-1.653.348-.488.219-.91.52-1.258.899a3.953 3.953 0 0 0-.812 1.351 4.689 4.689 0 0 0-.285 1.633c0 .582.097 1.129.285 1.652a3.988 3.988 0 0 0 2.07 2.25c.492.219 1.04.328 1.653.328Zm9.605-9.539h1.887l5.851 8.73h.032v-8.73h1.437v10.617h-1.828l-5.91-8.726h-.031v8.727h-1.438Zm13.937 0h3.735c.68 0 1.238.094 1.68.285.441.18.785.415 1.035.704.262.28.441.601.539.96.101.352.152.692.152 1.02 0 .34-.062.672-.18.992a2.815 2.815 0 0 1-.527.852 3.07 3.07 0 0 1-.824.648 2.91 2.91 0 0 1-1.078.313l3.012 4.843h-1.797l-2.703-4.68h-1.606v4.68h-1.437Zm1.438 4.68h1.89c.282 0 .555-.02.829-.063.277-.046.523-.132.734-.253.219-.122.395-.29.524-.508.129-.23.195-.528.195-.887 0-.36-.066-.648-.195-.871a1.323 1.323 0 0 0-.524-.523c-.21-.122-.457-.2-.734-.239a4.506 4.506 0 0 0-.828-.078h-1.89Zm22.188-4.68h2.144l3.375 8.04h.063l3.343-8.04h2.145v10.617h-1.441V4.086h-.028l-3.586 8.727h-.96l-3.583-8.727h-.031v8.727h-1.441Zm15.699 0h3.734c.68 0 1.242.094 1.68.285.441.18.785.415 1.035.704.262.28.441.601.54.96.1.352.151.692.151 1.02 0 .332-.05.676-.152 1.035a2.362 2.362 0 0 1-.539.961c-.25.277-.594.516-1.035.703-.438.18-1 .27-1.68.27h-2.293v4.68h-1.441Zm1.441 4.68h1.89c.278 0 .556-.02.825-.063a2.18 2.18 0 0 0 .734-.253c.22-.122.395-.29.524-.508.133-.23.195-.528.195-.887 0-.36-.062-.648-.195-.871a1.323 1.323 0 0 0-.524-.523c-.21-.122-.457-.2-.734-.239a4.464 4.464 0 0 0-.824-.078h-1.89ZM86.39 2.195h1.305l4.543 10.617h-1.68l-1.59-3.882-1.98-4.875h-.027l-3.57 8.758h-1.68Zm0 0" style="stroke:none;fill-rule:nonzero;fill:#151515;fill-opacity:1"/>
  <path d="M42.418 25.918c0-.297.102-.543.3-.742.2-.2.454-.297.766-.297.313 0 .57.098.782.297a.983.983 0 0 1 .308.742.958.958 0 0 1-.308.727c-.211.19-.47.285-.782.285-.312 0-.566-.094-.765-.29a.976.976 0 0 1-.301-.722Zm12.258.898v-3.695c0-.465-.114-.82-.34-1.058-.223-.239-.52-.356-.883-.356-.46 0-.82.184-1.086.559-.265.37-.394.933-.394 1.687h-.641c0-.66.063-1.223.184-1.683.125-.461.3-.836.527-1.118.23-.285.496-.492.805-.625a2.563 2.563 0 0 1 1.02-.199c.515 0 .948.117 1.296.352.348.226.613.554.793.972.176.422.266.91.266 1.47v3.694Zm-8.567 0v-6.308h1.336l.172 1.082c.207-.422.48-.735.824-.945a2.2 2.2 0 0 1 1.176-.317c.52 0 .953.117 1.301.352.352.226.613.554.785.972.18.422.27.91.27 1.47v3.694h-1.535v-3.695c0-.465-.114-.82-.34-1.058-.223-.239-.52-.356-.883-.356a1.36 1.36 0 0 0-.82.254c-.235.168-.418.422-.551.766-.133.335-.203.761-.203 1.265v2.824Zm14.82.18a3.323 3.323 0 0 1-1.566-.371 2.714 2.714 0 0 1-1.105-1.105c-.274-.493-.406-1.11-.406-1.852 0-.754.132-1.379.406-1.871a2.667 2.667 0 0 1 1.105-1.106 3.365 3.365 0 0 1 1.567-.363c.57 0 1.082.121 1.543.363.46.243.832.61 1.105 1.106.27.492.406 1.117.406 1.871 0 .742-.136 1.36-.406 1.852a2.71 2.71 0 0 1-1.105 1.105 3.22 3.22 0 0 1-1.543.371Zm-.05-1.34c.305 0 .57-.074.805-.218.238-.153.425-.375.558-.672.14-.293.211-.66.211-1.098 0-.668-.133-1.168-.398-1.508-.258-.336-.617-.508-1.07-.508-.31 0-.583.078-.82.23-.24.145-.427.368-.567.669-.133.297-.2.672-.2 1.117 0 .66.13 1.156.395 1.488.27.336.629.5 1.086.5Zm9.262 1.16v-3.695c0-.465-.114-.82-.34-1.058-.223-.239-.52-.356-.883-.356a1.36 1.36 0 0 0-.82.254c-.235.168-.418.422-.551.766-.133.335-.203.761-.203 1.265h-.504c0-.816.101-1.5.305-2.039.203-.547.492-.953.863-1.223.37-.27.812-.402 1.312-.402.52 0 .953.117 1.301.352.352.226.613.554.785.972.18.422.27.91.27 1.47v3.694Zm-4.329 0v-6.308h1.336l.196 1.25v5.058Zm10.454.18c-.54 0-1.032-.137-1.477-.414a3.064 3.064 0 0 1-1.074-1.164c-.27-.504-.403-1.09-.403-1.762 0-.695.133-1.289.399-1.789a2.888 2.888 0 0 1 1.07-1.144 2.88 2.88 0 0 1 1.485-.395c.5 0 .933.102 1.296.305.372.199.665.472.887.82.223.34.375.73.453 1.164.078.43.082.88.012 1.336h-4.379v-.832h3.297l-.3.195a2.74 2.74 0 0 0-.032-.617 1.81 1.81 0 0 0-.184-.57 1.058 1.058 0 0 0-.39-.418c-.164-.106-.375-.16-.637-.16-.312 0-.574.078-.793.234a1.47 1.47 0 0 0-.492.637c-.113.265-.172.57-.172.91v.61c0 .355.055.667.156.94.11.274.27.49.477.645.21.157.476.235.8.235.297 0 .547-.07.755-.207.203-.14.332-.348.386-.625h1.547a2.306 2.306 0 0 1-.46 1.078c-.24.308-.548.55-.93.73a3.112 3.112 0 0 1-1.297.258Zm3.578-6.488h1.742l1.676 4.969h-.274l1.442-4.97h1.562l-2.418 7.45c-.246.746-.554 1.285-.918 1.621-.36.332-.8.5-1.32.5a3.65 3.65 0 0 1-.875-.105 3.95 3.95 0 0 1-.867-.313v-1.35c.238.148.469.257.691.324.223.07.45.105.676.105a.862.862 0 0 0 .531-.168c.156-.11.293-.261.403-.46.113-.196.21-.426.289-.684l.195-.61Zm0 0" style="stroke:none;fill-rule:nonzero;fill:#2c5bff;fill-opacity:1"/>
</svg>
